local/share/icons/dracula-icons-main/scalable/mimetypes/application-pdf.svg

<?xml version="1.0" encoding="UTF-8"?>
<svg xmlns="http://www.w3.org/2000/svg" xmlns:xlink="http://www.w3.org/1999/xlink" width="64" height="64" viewBox="0 0 64 64">
<defs>
<filter id="filter-remove-color" x="0%" y="0%" width="100%" height="100%">
<feColorMatrix color-interpolation-filters="sRGB" values="0 0 0 0 1 0 0 0 0 1 0 0 0 0 1 0 0 0 1 0" />
</filter>
<mask id="mask-0">
<g filter="url(#filter-remove-color)">
<rect x="-6.4" y="-6.4" width="76.8" height="76.8" fill="rgb(0%, 0%, 0%)" fill-opacity="0.15"/>
</g>
</mask>
<linearGradient id="linear-pattern-0" gradientUnits="userSpaceOnUse" x1="49.570999" y1="52.714001" x2="51.714001" y2="54.856998" gradientTransform="matrix(0.617345, 0, 0, 0.617345, -18.167916, -19.050025)">
<stop offset="0" stop-color="rgb(0%, 0%, 0%)" stop-opacity="1"/>
<stop offset="1" stop-color="rgb(0%, 0%, 0%)" stop-opacity="0"/>
</linearGradient>
<clipPath id="clip-0">
<rect x="0" y="0" width="17" height="17"/>
</clipPath>
<g id="source-8826" clip-path="url(#clip-0)">
<path fill-rule="evenodd" fill="url(#linear-pattern-0)" d="M 14.816406 12.171875 L 11.113281 15.875 L 13.492188 15.875 C 14.226562 15.875 14.816406 15.285156 14.816406 14.550781 Z M 14.816406 12.171875 "/>
</g>
</defs>
<path fill-rule="nonzero" fill="rgb(90.980392%, 30.980392%, 26.27451%)" fill-opacity="1" d="M 3.441406 1.058594 L 13.492188 1.058594 C 14.222656 1.058594 14.816406 1.652344 14.816406 2.382812 L 14.816406 14.550781 C 14.816406 15.28125 14.222656 15.875 13.492188 15.875 L 3.441406 15.875 C 2.707031 15.875 2.117188 15.28125 2.117188 14.550781 L 2.117188 2.382812 C 2.117188 1.652344 2.707031 1.058594 3.441406 1.058594 Z M 3.441406 1.058594 "/>
<g mask="url(#mask-0)">
<use xlink:href="#source-8826"/>
</g>
<path fill-rule="nonzero" fill="rgb(100%, 100%, 100%)" fill-opacity="1" d="M 6.941406 9.175781 C 7.207031 8.65625 7.503906 8.074219 7.746094 7.492188 L 7.839844 7.261719 C 7.527344 6.066406 7.339844 5.109375 7.507812 4.492188 C 7.550781 4.332031 7.738281 4.234375 7.9375 4.234375 L 8.082031 4.234375 C 8.355469 4.230469 8.484375 4.578125 8.5 4.714844 C 8.523438 4.9375 8.417969 5.320312 8.417969 5.320312 C 8.417969 5.167969 8.425781 4.917969 8.328125 4.703125 C 8.214844 4.453125 8.105469 4.304688 8.011719 4.28125 C 7.960938 4.316406 7.914062 4.382812 7.898438 4.511719 C 7.863281 4.695312 7.855469 4.925781 7.855469 5.042969 C 7.855469 5.464844 7.9375 6.019531 8.097656 6.589844 C 8.128906 6.5 8.15625 6.414062 8.175781 6.335938 C 8.210938 6.210938 8.421875 5.378906 8.421875 5.378906 C 8.421875 5.378906 8.367188 6.484375 8.292969 6.820312 C 8.277344 6.890625 8.261719 6.960938 8.242188 7.03125 C 8.511719 7.78125 8.941406 8.445312 9.457031 8.925781 C 9.660156 9.117188 9.914062 9.269531 10.15625 9.410156 C 10.6875 9.332031 11.175781 9.296875 11.582031 9.300781 C 12.121094 9.308594 12.515625 9.390625 12.675781 9.546875 C 12.753906 9.625 12.785156 9.714844 12.796875 9.820312 C 12.800781 9.859375 12.78125 9.957031 12.773438 9.980469 C 12.78125 9.949219 12.78125 9.808594 12.347656 9.671875 C 12.003906 9.5625 11.367188 9.566406 10.601562 9.648438 C 11.488281 10.082031 12.351562 10.296875 12.625 10.167969 C 12.691406 10.132812 12.773438 10.023438 12.773438 10.023438 C 12.773438 10.023438 12.722656 10.242188 12.6875 10.296875 C 12.644531 10.355469 12.558594 10.421875 12.476562 10.441406 C 12.042969 10.558594 10.917969 10.289062 9.9375 9.730469 C 8.84375 9.890625 7.640625 10.191406 6.675781 10.507812 C 5.730469 12.167969 5.015625 12.929688 4.4375 12.640625 L 4.222656 12.53125 C 4.136719 12.484375 4.125 12.363281 4.144531 12.265625 C 4.210938 11.933594 4.625 11.433594 5.457031 10.9375 C 5.546875 10.882812 5.949219 10.671875 5.949219 10.671875 C 5.949219 10.671875 5.652344 10.960938 5.582031 11.015625 C 4.917969 11.558594 4.425781 12.246094 4.441406 12.511719 L 4.441406 12.535156 C 5.007812 12.453125 5.855469 11.304688 6.941406 9.175781 M 7.285156 9.351562 C 7.105469 9.695312 6.925781 10.011719 6.761719 10.300781 C 7.671875 9.921875 8.648438 9.679688 9.578125 9.507812 C 9.453125 9.421875 9.332031 9.328125 9.21875 9.230469 C 8.703125 8.796875 8.316406 8.257812 8.03125 7.6875 C 7.851562 8.171875 7.640625 8.6875 7.285156 9.351562 "/>
</svg>

<svg width="64" height="64" version="1.1" viewBox="0 0 16.933 16.933" xmlns="http://www.w3.org/2000/svg">
 <defs>
  <linearGradient id="a" x1="49.571" x2="51.714" y1="52.714" y2="54.857" gradientTransform="matrix(2.3333,0,0,2.3333,-68.667,-72.001)" gradientUnits="userSpaceOnUse">
   <stop offset="0"/>
   <stop stop-opacity="0" offset="1"/>
  </linearGradient>
 </defs>
 <g transform="scale(.26458)">
  <rect x="8" y="4" width="48" height="56" ry="5" fill="#e84f43" style="paint-order:stroke fill markers"/>
  <path d="m56 46-14 14h9c2.77 0 5-2.23 5-5z" fill="url(#a)" fill-rule="evenodd" opacity=".15" stroke-width="8.8191" style="paint-order:stroke fill markers"/>
 </g>
 <path d="m6.942 9.1745c0.26366-0.51679 0.56331-1.099 0.80315-1.6836l0.09483-0.23076c-0.31327-1.1921-0.50112-2.149-0.3333-2.7677 0.04518-0.16131 0.23201-0.25919 0.43176-0.25919l0.12172 0.0018h0.02234c0.27347-0.0042 0.40223 0.34367 0.41685 0.47892 0.02413 0.22525-0.08008 0.60646-0.08008 0.60646 0-0.15394 6e-3 -0.40268-0.09113-0.61733-0.1131-0.24837-0.22113-0.39674-0.31798-0.42026-0.0489 0.03266-0.09643 0.1003-0.11272 0.23041-0.03372 0.18243-0.04383 0.4127-0.04383 0.5314 0 0.41939 0.08258 0.97295 0.24486 1.5436 0.03061-0.08835 0.05755-0.17324 0.07897-0.25278 0.03328-0.12535 0.24483-0.95628 0.24483-0.95628s-0.05331 1.1061-0.12778 1.4408c-0.01596 0.07072-0.03356 0.14067-0.05189 0.21226 0.2676 0.7477 0.6988 1.415 1.2132 1.8953 0.20281 0.18954 0.45896 0.34238 0.70139 0.48168 0.52942-0.07565 1.0169-0.11138 1.4235-0.10688 0.53953 0.0071 0.93557 0.08691 1.0959 0.24488 0.07852 0.07678 0.11039 0.16951 0.12028 0.27346 0.0023 0.04044-0.01734 0.13546-0.02312 0.15931 0.0058-0.02887 0.0058-0.17083-0.42733-0.30908-0.34111-0.10904-0.9795-0.10565-1.7455-0.02411 0.88603 0.43348 1.7492 0.64886 2.0228 0.51974 0.06688-0.03259 0.148-0.14373 0.148-0.14373s-0.04822 0.21908-0.08284 0.27384c-0.04419 0.0595-0.13086 0.12396-0.21304 0.14569-0.43202 0.11526-1.5566-0.15146-2.537-0.71164-1.0953 0.16131-2.2982 0.45931-3.2625 0.77558-0.94754 1.6606-1.6599 2.4232-2.2394 2.1331l-0.21306-0.10714c-0.08661-0.04954-0.09983-0.17013-0.0798-0.26833 0.06757-0.33057 0.48208-0.82846 1.3147-1.3256 0.08962-0.05423 0.48884-0.26531 0.48884-0.26531s-0.29555 0.28605-0.36479 0.34219c-0.66458 0.5446-1.1551 1.2298-1.1428 1.4954l0.0024 0.02316c0.56454-0.08045 1.4111-1.2295 2.4995-3.3591m0.34492 0.17661c-0.18179 0.34238-0.35948 0.65982-0.52353 0.95129 0.90746-0.3802 1.8841-0.6235 2.8139-0.79634-0.12495-0.08628-0.24624-0.17764-0.36038-0.27422-0.51198-0.43346-0.90232-0.97424-1.1853-1.5433-0.17944 0.48342-0.39281 0.99712-0.7447 1.6626" enable-background="new" fill="#fff" stroke-width=".025916"/>
</svg>
